public/mulesoft-badge.svg

<svg fill="none" height="64" viewBox="0 0 64 64" width="64" xmlns="http://www.w3.org/2000/svg"><g fill="#fff"><path d="m32 61.4072c-16.1282 0-29.20025-13.072-29.20025-29.2002-.01971-16.1478 13.05235-29.21993 29.20025-29.21993 16.1281 0 29.2002 13.07213 29.2002 29.20023s-13.0721 29.2199-29.2002 29.2199zm-.0197-61.279026c-17.6464 0-32.0000144 14.294526-32.0000144 31.861926 0 17.5872 14.3536144 31.8817 32.0000144 31.8817 17.6463 0 32.0196-14.2945 32.0196-31.862 0-17.5871-14.3536-31.881626-32.0196-31.881626z"/><path d="m23.8776 46.304c-4.83-2.2683-8.1824-7.3938-8.1824-13.3291 0-3.1356.9268-6.0333 2.5234-8.3993l10.5294 15.6971h6.3709l10.5293-15.6971c1.5966 2.366 2.5235 5.2848 2.5235 8.3993 0 5.54-2.9168 10.3508-7.2153 12.8378l2.0302 7.768c7.7296-3.9819 12.9914-12.0281 12.9914-21.3139 0-8.7735-4.713-16.4263-11.7306-20.6039l-12.2238 18.8691-12.1086-18.9478c-7.1002 4.1603-11.8688 11.8688-11.8688 20.6826 0 9.6216 5.6609 17.9231 13.8415 21.7284z"/></g></svg>

<svg width="64" height="64" viewBox="0 0 64 64" fill="none" xmlns="http://www.w3.org/2000/svg">
<path d="M32 61.4072C15.8718 61.4072 2.79975 48.3352 2.79975 32.207C2.78004 16.0592 15.8521 2.98707 32 2.98707C48.1281 2.98707 61.2002 16.0592 61.2002 32.1873C61.2002 48.3154 48.1281 61.4072 32 61.4072ZM31.9803 0.128174C14.3339 0.128174 -0.0197144 14.4227 -0.0197144 31.9901C-0.0197144 49.5773 14.3339 63.8718 31.9803 63.8718C49.6266 63.8718 63.9999 49.5773 63.9999 32.0098C63.9999 14.4227 49.6463 0.128174 31.9803 0.128174V0.128174Z" fill="#fff"/>
<path d="M23.8776 46.304C19.0476 44.0357 15.6952 38.9102 15.6952 32.9749C15.6952 29.8393 16.622 26.9416 18.2186 24.5756L28.748 40.2727H35.1189L45.6482 24.5756C47.2448 26.9416 48.1717 29.8604 48.1717 32.9749C48.1717 38.5149 45.2549 43.3257 40.9564 45.8127L42.9866 53.5807C50.7162 49.5988 55.978 41.5526 55.978 32.2668C55.978 23.4933 51.265 15.8405 44.2474 11.6629L32.0236 30.532L19.915 11.5842C12.8148 15.7445 8.0462 23.453 8.0462 32.2668C8.0462 41.8884 13.7071 50.1899 21.8877 53.9952L23.8776 46.304Z" fill="#fff"/>
</svg>
